picto/luggage-reclaim-framed.svg

<svg class="color-immutable" width="30" height="30" viewBox="0 0 30 30" fill="none" xmlns="http://www.w3.org/2000/svg"><path d="M30 30H0V0H30V30Z" fill="#2D327D"/><path d="M25.5 3C26.325 3 27 3.675 27 4.5V25.5C27 26.325 26.325 27 25.5 27H4.5C3.675 27 3 26.325 3 25.5V4.5C3 3.675 3.675 3 4.5 3H25.5ZM25.5 2.625H4.5C3.46613 2.625 2.625 3.46613 2.625 4.5V25.5C2.625 26.5339 3.46613 27.375 4.5 27.375H25.5C26.5339 27.375 27.375 26.5339 27.375 25.5V4.5C27.375 3.46613 26.5339 2.625 25.5 2.625Z" fill="white"/><path d="M8.53147 12.6571C8.59087 12.7165 8.67262 12.75 8.7573 12.75C8.93272 12.75 9.07582 12.607 9.07582 12.4314C9.07582 12.347 9.04238 12.2652 8.9829 12.2058L8.64555 11.8697L8.78032 11.7341L9.6972 12.6515C9.7614 12.7146 9.84682 12.7499 9.936 12.7499C10.1227 12.7499 10.2742 12.5995 10.2742 12.4119C10.2742 12.3227 10.238 12.2373 10.1747 12.1733L9.258 11.2568L9.39352 11.1221L10.9228 12.6515C10.9849 12.7147 11.0713 12.75 11.1604 12.75C11.3473 12.75 11.4986 12.5996 11.4986 12.412C11.4986 12.3228 11.4623 12.2374 11.4002 12.1733L9.87015 10.6439L10.0058 10.5093L12.1416 12.646C12.2085 12.7128 12.2995 12.75 12.3943 12.75C12.5903 12.75 12.7501 12.5903 12.7501 12.3934C12.7501 12.2996 12.712 12.2087 12.6452 12.1418L9.62978 9.12571C9.56647 9.06264 9.5313 8.97624 9.5313 8.88706C9.5313 8.70039 9.68272 8.54911 9.8685 8.54911H11.0622C11.3111 8.54911 11.5128 8.34849 11.5128 8.09964C11.5128 8.07736 11.5117 8.05591 11.5081 8.03551C11.4951 7.94274 11.4161 7.87494 11.3224 7.87494H6V10.5H6.3744L8.53147 12.6571Z" fill="white"/><path d="M17.25 21.4498V16.2001C17.25 15.5789 16.7456 15.0748 16.125 15.0748H13.4998V14.3998C13.4998 13.903 13.0966 13.5001 12.6005 13.5001H10.6496C10.1537 13.5001 9.7503 13.903 9.7503 14.3998V15.0748H7.12493C6.5034 15.0748 6 15.5789 6 16.2001V21.4498C6 22.0709 6.5034 22.575 7.12493 22.575H16.125C16.7456 22.5751 17.25 22.0709 17.25 21.4498ZM10.4247 14.1751H12.8252V15.0748H10.4247V14.1751ZM14.438 19.3123C14.438 19.4785 14.3033 19.6131 14.137 19.6131H12.1127C11.9465 19.6131 11.8127 19.4785 11.8127 19.3123V16.7145C11.8127 16.6347 11.8442 16.5595 11.9 16.5027H11.9011L12.5225 15.8807C12.5587 15.8446 12.6062 15.8249 12.6564 15.8249H12.9377V16.2001H13.3121V15.8249H13.5945C13.6438 15.8249 13.6922 15.8446 13.7266 15.8807L14.3498 16.5027C14.4065 16.5595 14.4382 16.6346 14.4382 16.7145V19.3123H14.438Z" fill="white"/><path d="M12.75 23.325H24V24H12.75V23.325Z" fill="white"/></svg>

<svg class="color-immutable" width="30" height="30" viewBox="0 0 30 30" fill="none" xmlns="http://www.w3.org/2000/svg"><g clip-path="url(#a)"><path d="M30 30H0V0h30v30Z" fill="#2D327D"/><path d="M25.5 3c.825 0 1.5.675 1.5 1.5v21c0 .825-.675 1.5-1.5 1.5h-21c-.825 0-1.5-.675-1.5-1.5v-21C3 3.675 3.675 3 4.5 3h21Zm0-.375h-21A1.877 1.877 0 0 0 2.625 4.5v21c0 1.034.841 1.875 1.875 1.875h21a1.877 1.877 0 0 0 1.875-1.875v-21A1.877 1.877 0 0 0 25.5 2.625Z" fill="#fff"/><path d="M8.531 12.657a.32.32 0 0 0 .545-.226.32.32 0 0 0-.093-.225l-.337-.336.134-.136.917.918a.338.338 0 1 0 .477-.478l-.916-.917.136-.135 1.529 1.53a.337.337 0 0 0 .477-.478l-1.53-1.53.136-.135 2.136 2.137a.357.357 0 0 0 .608-.253.357.357 0 0 0-.105-.251L9.63 9.126a.337.337 0 0 1 .238-.577h1.194a.45.45 0 0 0 .446-.513.186.186 0 0 0-.186-.161H6V10.5h.374l2.157 2.157ZM17.25 21.45V16.2c0-.621-.504-1.125-1.125-1.125H13.5V14.4a.9.9 0 0 0-.9-.9h-1.95a.9.9 0 0 0-.9.9v.675H7.125C6.503 15.075 6 15.579 6 16.2v5.25c0 .62.503 1.125 1.125 1.125h9c.62 0 1.125-.504 1.125-1.125Zm-6.825-7.275h2.4v.9h-2.4v-.9Zm4.013 5.137a.3.3 0 0 1-.301.301h-2.024a.3.3 0 0 1-.3-.3v-2.598c0-.08.031-.155.087-.212h.001l.622-.622a.188.188 0 0 1 .133-.056h.282v.375h.374v-.375h.283c.049 0 .097.02.132.056l.623.622a.298.298 0 0 1 .088.212v2.597ZM12.75 23.325H24V24H12.75v-.675Z" fill="#fff"/></g><defs><clipPath id="a"><path fill="#fff" d="M0 0h30v30H0z"/></clipPath></defs></svg>
